!!!SOCIAL_FUNCTION:	war songs
!!!PDT:	1943
!!!OTL: No_29_War_Song_Dance.krn
!!!REG: British Columbia
**kern	**kern
*staff2	*staff1
=1-	=1-
*clefF4	*clefF4
*k[b-e-a-]	*k[b-e-a-]
*M6/8	*M6/8
8r	4.r
8r	.
8r	.
8r	8E-\L
8r	8E-\J
16r	16r
16GG/	16E-\
=2	=2
8r	8e-\L
8r	8e-\
8r	16e-\Jk
.	16r
8r	8e-\L
8GG/	16d\Jk
.	16r
8r	8B-\
=3	=3
8r	8B-\L
8r	8B-\
8r	8B-\J
8r	8B-\
8GG/	8r
8r	8e-\
=4	=4
8r	4e-\
8r	.
8r	16e-\LL
.	16c\JJ
8GG/	8e-\
8r	8r
8r	8B-\
=5	=5
8r	4B-\
8r	.
8r	8B-\
8GG/	8c\
8r	8r
8r	8B-\
=6||	=6||
*M7/8	*M7/8
8r	8B-\L
8GG/	8G\
8r	8G\
8r	8G\J
8r	8r
8r	16B-\LL
.	16G\J
8GG/	8B-\J
=7||	=7||
*M3/8	*M3/8
8r	8F\L
8r	8E-\
8r	8F\J
=8||	=8||
*M7/8	*M7/8
8r	8E-\L
8GG/	8E-\
8r	8E-\
8r	8E-\
8r	8E-\J
8r	8r
8GG/	8B-\
=9	=9
8r	8B-\L
8r	8G\
8r	8G\
8r	16B-\L
.	16G\
8r	16F\JJ
.	16r
8r	8E-\L
8r	8E-\J
=10||	=10||
*M5/8	*M5/8
8GG/	8E-\L
8r	16B-\Jk
.	8.r
8r	.
8r	8F\L
8r	16G\Jk
.	16r
=11||	=11||
*M7/8	*M7/8
8GG/	8E-\L
8r	8E-\
8r	8E-\
8r	8E-\
8GG/	8E-\
8r	8E-\
8r	8E-\J
=12||	=12||
*M6/8	*M6/8
8r	8F\L
8r	16G\Jk
.	16r
8GG/	8E-\
8r	4E-\
8r	.
8r	8BB-/
=13||	=13||
*M5/8	*M5/8
8GG/	8E-\L
8r	8E-\
8r	8E-\J
8r	4E-\
8r	.
=14||	=14||
*M6/8	*M6/8
8GG/	8E-\
8r	8r
8r	8BB-/
8r	8BB-/L
8GG/	16BB-/Jk
.	16r
8r	8E-\
=15||	=15||
*M7/8	*M7/8
8r	[4.E-\
8r	.
8r	.
8GG/	8E-\L]
8r	8F\
8r	16G\Jk
.	16r
8r	8E-\
=16||	=16||
*M3/8	*M3/8
8GG/	4E-\
8r	.
8r	8BB-/
=17||	=17||
*M5/8	*M5/8
8r	8E-\L
8r	8E-\
8GG/	8E-\J
8r	4E-\
8r	.
==	==
*-	*-
